X:130
T:Miss McGuiness (reel)  
B:CRE1.121 (Inion Mhic Aonghusa)
F:file ID: cre.1/130miss_mcg
S:Tommy Reck
M:C
L:1/8
Q:180
R:reel
K:Am
e|dGG2 dGBd|dGG2 e^fge|dGG2 dGBd|(3e^fg dB BAAe|
dGG2 dGBd|dGG2 e^fge|dGG2 dGBd|(3e^fg dB BAA||
g|^faaf g3e|dedB de^fg|^faaf g3e|dBgB BAAg|
^faaf g2ge|dedB dega|bagb a^fge|dBgB BAA2||

%%%

